packages/components/src/images/icons/pencil.svg

<svg viewBox="0 0 24 24" xmlns="http://www.w3.org/2000/svg" xml:space="preserve" style="fill-rule:evenodd;clip-rule:evenodd;stroke-linejoin:round;stroke-miterlimit:2"><path d="M9 21.25c.265 0 .52-.105.707-.293l11.47-11.47c.327-.327.513-.773.513-1.237 0-.464-.186-.91-.513-1.237l-4.19-4.19a1.753 1.753 0 0 0-1.237-.513c-.464 0-.91.186-1.237.513l-11.25 11.25a1.765 1.765 0 0 0-.382.573 1.762 1.762 0 0 0-.131.664v4.19a1.753 1.753 0 0 0 1.75 1.75H9Zm7.586-10L12.75 7.414l-8 8v3.836h3.836l8-8ZM14.164 6 18 9.836l1.586-1.586-3.836-3.836L14.164 6Z"/></svg>

<svg width="12" height="12" viewBox="0 0 24 24" version="1.1" xmlns="http://www.w3.org/2000/svg" xmlns:xlink="http://www.w3.org/1999/xlink" xml:space="preserve" xmlns:serif="http://www.serif.com/" style="fill-rule:evenodd;clip-rule:evenodd;stroke-linejoin:round;stroke-miterlimit:2;">
    <path d="M9,21.25C9.265,21.25 9.52,21.145 9.707,20.957L21.177,9.487C21.504,9.16 21.69,8.714 21.69,8.25C21.69,7.786 21.504,7.34 21.177,7.013C21.177,7.013 16.987,2.823 16.987,2.823C16.66,2.496 16.214,2.31 15.75,2.31C15.286,2.31 14.84,2.496 14.513,2.823C14.513,2.823 3.263,14.073 3.263,14.073C3.101,14.235 2.974,14.426 2.886,14.634C2.884,14.638 2.882,14.642 2.881,14.646C2.795,14.857 2.75,15.083 2.75,15.31L2.75,19.5C2.75,19.965 2.935,20.411 3.264,20.738C3.591,21.064 4.036,21.25 4.5,21.25C4.5,21.25 9,21.25 9,21.25ZM16.586,11.25L12.75,7.414L4.75,15.414L4.75,19.25L8.586,19.25L16.586,11.25ZM14.164,6L18,9.836L19.586,8.25L15.75,4.414L14.164,6Z" />
</svg>
